X:3609
L:1/8
Q:1/4=136
M:4/4
K:Ador
 B, | A,>A,A,>B, C>DE>A | A,>A,A,>C{C} B,>A,G,>B, | A,A,A,B, C>DE>C | B,>DG>E D/C/B,/A,/ G, :| B | 
 c>eA>e c>e d/c/B/A/ | c>eA>e d/c/B/A/ G>B | c>eA>e c>ee>f | g>g a/g/f/e/ d/c/B/A/ G>B | 
 c>eA>e c>e d/c/B/A/ | c>eA>e d/c/B/A/ G>B | (3cec (3BcB (3ABA (3DEF | G>ED>C{C} B,>A,G,>B, |]

